!!!COM: Bach, Johann Sebastian
!!!OPR: Das wohltemperirte Clavier, Band I
!!!XEN: The Well-Tempered Clavier, Volume I
!!!OTL: Prelude in F-sharp Major
!!!OMV: Prelude XIII
!!!SCT: BWV 858
!!!SCA: Thematisch-systematisches Verzeichnis der musikalischen Werke Johann Sebastian Bach: Bach-Werke-Verzeichnis (Schmieder)
!!!YOR: Bach Gesellschaft Edition xiv
!!!ENC: Walter Hewlett
!!!CDT: 1685/3//-1750/7/28/
!!!OCY: Deutschland
!!!YEC: Copyright (c) 1994, 2000 Center for Computer Assisted Research in the Humanities
!!!YEM: Rights to all derivative editions reserved
!!!YEN: United States of America
**kern
*k[f#c#g#d#a#e#]
*F#:
*M12/16
*MM100
=1-
*^
16f#/LL	4.r
16a#/	.
16cc#/JJ	.
16a#/LL	.
16f#/	.
16cc#/JJ	.
[4.cc#\	16F#\LL
.	16A#\
.	16c#\JJ
.	16A#\LL
.	16F#\
.	16d#\JJ
=2	=2
16cc#\LL]	8.d#\L
16a#\J	.
8b\J	.
.	8.c#\J
16cc#\LK	.
8a#\J	.
.	8.B\L
16dd#\LK	.
8g#\J	.
.	8.A#\J
16a#/LL	.
[16f#/JJ	.
=3	=3
16f#/LL]	8.G#\L
16b/J	.
8e#/J	.
.	8.F#\J
16b/LK	.
8d#/J	.
.	8.E#\L
16b/LL	.
16c#/JJ	.
16e#/LL	8.C#\J
16g#/	.
16b/JJ	.
=4	=4
16a#/LL	8.F#\L
16f#/J	.
8b#/J	.
.	8.G#\J
16f#/LK	.
8cc#/J	.
.	8.A#\L
16f#/LK	.
8dd#/J	.
.	8.B#\J
16g#\LL	.
[16ee#\JJ	.
=5	=5
16ee#\LL]	8.c#\L
16gg#\J	.
8cc#\J	.
.	8.G#\J
16dd#\LL	.
16b#\JJ	.
16cc#\LL	8.A#\L
16ee#\	.
16cc#\JJ	.
16cc#\LL	8.E#\J
32ee#\L	.
32dd#\J	.
[16cc#\JJ	.
=6	=6
16cc#\LL]	8.F#\L
16aa#\J	.
8cc#\J	.
.	8.G#\J
16dd#\LL	.
16b#\JJ	.
16cc#\LL	8.C#/
16ee#\	.
16gg#\JJ	.
16ee#\LL	8.r
16cc#\	.
16gg#\JJ	.
=7	=7
[4.gg#t\	16C#\LL
.	16E#\
.	16G#\JJ
.	16E#\LL
.	16C#\
.	16A#\JJ
16gg#\LL]	8.A#\L
16ee#\J	.
8ff#\J	.
.	8.G#\J
16gg#\LL	.
[16ee#\JJ	.
=8	=8
16ee#\LL]	8.F#\L
16aa#\J	.
8dd#\J	.
.	8.E#\J
16ee#\LL	.
16cc##\JJ	.
16ff#\LL	8.D#\L
16a#\J	.
8b\J	.
.	8.C#\J
16cc#\LL	.
[16a#\JJ	.
=9	=9
16a#/LL]	8.BB/L
16dd#/J	.
8g#/J	.
.	8.AA#/J
16a#/LK	.
8f#/J	.
.	8.GG#/L
16b/LK	.
8en/J	.
.	8.FF#/J
16f#/LL	.
16d#/JJ	.
=10	=10
16g#/LL	8.EE#/L
16c##/J	.
8d#/J	.
.	8.D#/J
16c##/LK	.
8g#/J	.
.	8.C##/L
16e#/LK	.
8b/J	.
.	8.AA#/J
16g#\LL	.
[16ee#\JJ	.
=11	=11
16ee#/LL]	8.D#\L
16e#/J	.
8f#/J	.
.	8.F#\J
16a#/LK	.
8dd#/J	.
.	8.G#\L
16e#/LK	.
8g#/J	.
.	8.A#\J
16a#/LL	.
16cc##/JJ	.
=12	=12
[4.dd#t\	16D#\LL
.	16F#\
.	16A#\JJ
.	16F#\LL
.	16D#\
.	16B#\JJ
16dd#\LL]	[4.B#t\
16ff#\	.
16aa#\JJ	.
16ff#\LL	.
16dd#\	.
16gg##\JJ	.
=13	=13
[4.gg##t\	16B#\LL]
.	16d#\
.	16f#\JJ
.	16d#\LL
.	16B#\
.	16f#\JJ
16gg##\LL]	16f#\LL
16aa#\	16e#\
16bb#\JJ	16d#\JJ
16ee#\LL	16c#\LL
16ff#\	16d#\
16dd#\JJ	16e#\JJ
=14	=14
16cc#\LL	8.A#\L
16ee#\J	.
8a#\J	.
.	8.E#\J
16b#/LL	.
16g##/JJ	.
16a#/LL	8.F#\L
16cc#/	.
16a#/JJ	.
16a#/LL	8.C#\J
32cc#/L	.
32b#/J	.
[16a#/JJ	.
=15	=15
16a#\LL]	8.D#\L
16ff#\J	.
8a#\J	.
.	8.E#\J
16b#/LL	.
16g##/JJ	.
16a#\LL	8.AA#/
16cc#\	.
16ee#\JJ	.
16cc#\LL	8r
16a#\	.
16ff##\JJ	16r
=16	=16
[4.ff##\	16D#\LL
.	16F##\
.	16A#\JJ
.	16F##\LL
.	16D#\
.	16c#\JJ
16ff##\LL]	8.c#\L
16aa#\	.
16dd#\JJ	.
16cc#\LL	8.F##\J
16b\	.
16a#\JJ	.
=17	=17
16b/LL	8.G#\L
16dd#/J	.
8g#/J	.
.	8.D#\J
16a#/LL	.
16f##/JJ	.
16g#/LL	8.En\L
16b/	.
16g#/JJ	.
16g#/LL	8.BB\J
32b/L	.
32a#/J	.
[16g#/JJ	.
=18	=18
16g#/LL]	8.C#/L
16een/J	.
8g#/J	.
.	8.D#/J
16a#/LL	.
16f##/JJ	.
16g#/LL	8.GG#/
16b/	.
16dd#/JJ	.
16b\LL	8.r
16g#\	.
16ee#\JJ	.
=19	=19
[4.ee#t\	16C#\LL
.	16E#\
.	16G#\JJ
.	16E#\LL
.	16C#\
.	16B\JJ
16ee#\LL]	[8.B\
16cc#\	.
16ee#\JJ	.
16gg#\LL	16B\LL]
16ee#\	16G#\
16gg#\JJ	16B\JJ
=20	=20
[4.bb\	16e#\LL
.	16g#\
.	16e#\JJ
.	16c#\LL
.	16e#\
.	16c#\JJ
16bb\LL]	8.F#\L
16gg#\J	.
8aa#\J	.
.	8.B\J
16bb\LL	.
[16gg#\JJ	.
=21	=21
16gg#\LL]	8.B#\L
16ee#\J	.
8ff#\J	.
.	8.c#\J
16gg#\LL	.
16ee#\JJ	.
16ff#\LL	8.D#/L
16a#\J	.
8b\J	.
.	8.C#/J
16cc#\LL	.
[16a#\JJ	.
=22	=22
16a#/LL]	8.BB/L
16dd#/J	.
8g#/J	.
.	8.AA#/J
16a#/LK	.
8f#/J	.
.	8.GG#/L
16e#/LK	.
8b/J	.
.	8.F#/J
16g#/LL	.
[16dd#/JJ	.
=23	=23
16dd#\LL]	8.E#/L
16b\J	.
8gg#\J	.
.	8.C#/J
16ee#\LK	.
8b\J	.
.	8.F#/L
16g#/LK	.
8cc#/J	.
.	8.AA#/J
16a#/LL	.
[16f#/JJ	.
=24	=24
16f#/LL]	8.BB/L
16d#/J	.
8b/J	.
.	8.C#/J
16g#/LL	.
16e#/JJ	.
[4.f#/	16FF#/LL
.	16AA#/
.	16C#/JJ
.	16AA#/LL
.	16FF#/
.	16D#/JJ
=25	=25
16f#/LL]	8.D#\L
16A#/J	.
8B/J	.
.	8.C#\J
16c#/LK	.
8A#/J	.
.	8.BB\L
16d#/LK	.
8G#/J	.
.	8.AA#\J
16A#/LL	.
16F#/JJ	.
=26	=26
[4.B/	16GG#/LL
.	16BB/
.	16D#/JJ
.	16BB/LL
.	16GG#/
.	16E#/JJ
16B/LL]	[4.CC#/
16e#/	.
16g#/JJ	.
16e#/LL	.
16B/	.
16g#/JJ	.
=27	=27
16An/LL	8.CC#/L]
16c#/	.
16f#/JJ	.
16B/LL	8.C#/J
16e#/	.
16g#/JJ	.
16c#/LL	8.CC#/L
16f#/	.
16an/JJ	.
16dn/LL	8.C#/J
16g#/	.
16b/JJ	.
=28	=28
16e#/LL	8.CC#/L
16b/J	.
8ddn/J	.
.	8.E#/J
16b\LK	.
8ee#\J	.
.	8.G#\L
16ddn\LK	.
8gg#\J	.
.	8.c#\J
16ee#\LL	.
16bb\JJ	.
=29	=29
16aa#\LL	8.F#\L
16cc#\J	.
8ff#\J	.
.	8.C#\J
16gg#\LL	.
16ee#\JJ	.
16ff#\LL	8.D#/L
16a#\	.
16ff#\JJ	.
16ff#\LL	8.AA#/J
32aa#\L	.
32gg#\J	.
[16ff#\JJ	.
=30	=30
16ff#\LL]	8.BB/L
16g#\J	.
8ff#\J	.
.	8.C#/J
16gg#\LL	.
16ee#\JJ	.
16ff#\LL	4.FF#/
16cc#\	.
16a#\JJ	.
8.f#/	.
==|!;	==|!;
*-	*-
!!!END: 1994/01/13/
!!!KEY: 3469249251
!!!EMD: Converted from MuseData to Humdrum Dec 19, 2000, by Andreas Kornstaedt using muse2kern.
